X: 12408
T: Far Away
R: waltz
M: 3/4
K: Bminor
|:FA|"Bm" B3 A Bd|"F#m"cA F2 FA|"Bm"B3 A Be|"A"c3 A dc|
"G"B3 G Bd|"F#m"cA F2 de|"D"fed "A"cBA|1 "Bm"B4:|2 "Bm"B2 Bc de||
"D"f2 fe fa|"A"ec A2 de|"D"f3 e fa|"A"e4 de|
"D"f2 fe fa|"A"ec A2 Bc|"G"dcB "A"cBA|"Bm"B2 Bc de|
"D"f2 fe fa|"A"ec A2 de|"D(Bm)"f3 e fa|"A"e4 de|
"Bm"fdB "A"ecA|"G"dBG "A"cBA|"Bm"F2 B2 "(F#m)"BA|"Bm"B6||

